src/lib/images/icons/team.svg

<svg width="28" height="28" viewBox="0 0 28 28" fill="none" xmlns="http://www.w3.org/2000/svg">
<path d="M14 12C16.206 12 18 10.206 18 8V5C18 4.448 17.552 4 17 4H11C10.448 4 10 4.448 10 5V8C10 10.206 11.794 12 14 12ZM12 6H16V8C16 9.103 15.103 10 14 10C12.897 10 12 9.103 12 8V6Z" fill="white"/>
<path d="M23 8C25.206 8 27 6.206 27 4V1C27 0.448 26.552 0 26 0H20C19.448 0 19 0.448 19 1V4C19 6.206 20.794 8 23 8ZM21 2H25V4C25 5.103 24.103 6 23 6C21.897 6 21 5.103 21 4V2Z" fill="white"/>
<path d="M5 8C7.206 8 9 6.206 9 4V1C9 0.448 8.552 0 8 0H2C1.448 0 1 0.448 1 1V4C1 6.206 2.794 8 5 8ZM3 2H7V4C7 5.103 6.103 6 5 6C3.897 6 3 5.103 3 4V2Z" fill="white"/>
<path d="M20 13H8C7.448 13 7 13.448 7 14V27C7 27.552 7.448 28 8 28C8.552 28 9 27.552 9 27V15H19V27C19 27.552 19.448 28 20 28C20.552 28 21 27.552 21 27V14C21 13.448 20.552 13 20 13Z" fill="white"/>
<path d="M27 9H19C18.448 9 18 9.448 18 10C18 10.552 18.448 11 19 11H26V22C26 22.552 26.448 23 27 23C27.552 23 28 22.552 28 22V10C28 9.448 27.552 9 27 9Z" fill="white"/>
<path d="M1 23C1.552 23 2 22.552 2 22V11H9C9.552 11 10 10.552 10 10C10 9.448 9.552 9 9 9H1C0.448 9 0 9.448 0 10V22C0 22.552 0.448 23 1 23Z" fill="white"/>
</svg>

<svg width="28" height="28" fill="none" xmlns="http://www.w3.org/2000/svg"><path d="M14 12c2.206 0 4-1.794 4-4V5a1 1 0 0 0-1-1h-6a1 1 0 0 0-1 1v3c0 2.206 1.794 4 4 4zm-2-6h4v2c0 1.103-.897 2-2 2s-2-.897-2-2V6zm11 2c2.206 0 4-1.794 4-4V1a1 1 0 0 0-1-1h-6a1 1 0 0 0-1 1v3c0 2.206 1.794 4 4 4zm-2-6h4v2c0 1.103-.897 2-2 2s-2-.897-2-2V2zM5 8c2.206 0 4-1.794 4-4V1a1 1 0 0 0-1-1H2a1 1 0 0 0-1 1v3c0 2.206 1.794 4 4 4zM3 2h4v2c0 1.103-.897 2-2 2s-2-.897-2-2V2zm17 11H8a1 1 0 0 0-1 1v13a1 1 0 0 0 2 0V15h10v12a1 1 0 0 0 2 0V14a1 1 0 0 0-1-1z" fill="#fff"/><path d="M27 9h-8a1 1 0 0 0 0 2h7v11a1 1 0 0 0 2 0V10a1 1 0 0 0-1-1zM1 23a1 1 0 0 0 1-1V11h7a1 1 0 0 0 0-2H1a1 1 0 0 0-1 1v12a1 1 0 0 0 1 1z" fill="#fff"/></svg>
